X:1
T: Willie Winkie
C:
R:Strathspey
Q: 128
K:F
M:4/4
L:1/16
|:f2|cF3 BAGF cF3 F3f|cF3 ABcA GD3 D3f|cF3 ABcA cF3 AF3|GG3 A3G FD3 D2f2|
cF3 BAGF cF3 F3f|cF3 ABcA GD3 D3f|cF3 ABcA cF3 AF3|GG3 A3G FD3 D2f2|
f4 agfe fF3 Ac3|f3c ((3f2g2a2) gG3 G3e|((3f2e2f2) ((3g2f2g2) ((3a2g2f2) ((3g2f2e2) |((3d2e2f2) ((3c2B2A2) GD3 D2f2|
f4 agfe fF3 Ac3|f3c ((3f2g2a2) gG3 G3e|((3f2e2f2) ((3g2f2g2) ((3a2g2f2) ((3g2f2e2) |((3d2e2f2) ((3c2B2A2) GD3 D2:|
